build/assets/icon5BW.svg

<svg width="181" height="109" viewBox="0 0 181 109" fill="none" xmlns="http://www.w3.org/2000/svg">
<path d="M72.375 23.75H88V39.375" stroke="#838383" stroke-width="6.25" stroke-linecap="round" stroke-linejoin="round"/>
<path d="M28.625 86.25H13V70.625" stroke="#838383" stroke-width="6.25" stroke-linecap="round" stroke-linejoin="round"/>
<path d="M88 70.625V86.25H72.375" stroke="#838383" stroke-width="6.25" stroke-linecap="round" stroke-linejoin="round"/>
<path d="M13 39.375V23.75H28.625" stroke="#838383" stroke-width="6.25" stroke-linecap="round" stroke-linejoin="round"/>
<path d="M31.75 39.375V70.625" stroke="#838383" stroke-width="6.25" stroke-linecap="round" stroke-linejoin="round"/>
<path d="M69.25 39.375V70.625" stroke="#838383" stroke-width="6.25" stroke-linecap="round" stroke-linejoin="round"/>
<path d="M56.75 39.375V70.625" stroke="#838383" stroke-width="6.25" stroke-linecap="round" stroke-linejoin="round"/>
<path d="M44.25 39.375V70.625" stroke="#838383" stroke-width="6.25" stroke-linecap="round" stroke-linejoin="round"/>
<path d="M116.523 58.228L146.739 50.1318" stroke="#B0B0B0" stroke-width="4.8125" stroke-linecap="round" stroke-linejoin="round"/>
<path d="M119.016 67.525L149.231 59.4288" stroke="#B0B0B0" stroke-width="4.8125" stroke-linecap="round" stroke-linejoin="round"/>
<path d="M111.837 91.8687L100.004 47.7077C99.8385 47.0913 99.9249 46.4345 100.244 45.8818C100.563 45.3292 101.089 44.9259 101.705 44.7607L152.839 31.0595C153.455 30.8943 154.112 30.9808 154.665 31.2999C155.217 31.6189 155.621 32.1445 155.786 32.7609L167.619 76.9219L157.076 74.7645L149.025 81.9041L138.482 79.7467L130.431 86.8864L119.888 84.729L111.837 91.8687Z" stroke="#B0B0B0" stroke-width="4.8125" stroke-linecap="round" stroke-linejoin="round"/>
<path d="M112.959 7.03888L106.23 32.153" stroke="#B0B0B0" stroke-width="2" stroke-linecap="round" stroke-linejoin="round"/>
<path d="M117.65 16.578C117.82 15.9438 117.863 15.2823 117.777 14.6313C117.692 13.9803 117.479 13.3525 117.15 12.7839C116.822 12.2153 116.385 11.7169 115.864 11.3171C115.343 10.9174 114.749 10.6242 114.114 10.4543L109.768 9.28959C108.487 8.94638 107.122 9.12605 105.974 9.7891C104.825 10.4521 103.987 11.5442 103.644 12.8251C103.301 14.106 103.48 15.4708 104.143 16.6192C104.806 17.7676 105.899 18.6056 107.179 18.9489L112.492 20.3724C113.773 20.7156 114.865 21.5536 115.528 22.702C116.191 23.8504 116.371 25.2152 116.028 26.4961C115.684 27.777 114.846 28.8691 113.698 29.5321C112.55 30.1952 111.185 30.3748 109.904 30.0316L104.108 28.4787C102.827 28.1355 101.735 27.2975 101.072 26.1491C100.409 25.0007 100.23 23.6359 100.573 22.355" stroke="#B0B0B0" stroke-width="2" stroke-linecap="round" stroke-linejoin="round"/>
</svg>

<svg width="181" height="109" fill="none" xmlns="http://www.w3.org/2000/svg"><path d="M72.375 23.75H88v15.625M28.625 86.25H13V70.625M88 70.625V86.25H72.375M13 39.375V23.75h15.625M31.75 39.375v31.25M69.25 39.375v31.25M56.75 39.375v31.25M44.25 39.375v31.25" stroke="#838383" stroke-width="6.25" stroke-linecap="round" stroke-linejoin="round"/><path d="m116.523 58.228 30.216-8.096M119.016 67.525l30.215-8.096M111.837 91.869l-11.833-44.161a2.405 2.405 0 0 1 1.701-2.947l51.134-13.702a2.407 2.407 0 0 1 2.947 1.702l11.833 44.16-10.543-2.157-8.051 7.14-10.543-2.157-8.051 7.14-10.543-2.158-8.051 7.14Z" stroke="#B0B0B0" stroke-width="4.813" stroke-linecap="round" stroke-linejoin="round"/><path d="m112.959 7.039-6.729 25.114M117.65 16.578a4.993 4.993 0 0 0-.5-3.794 4.995 4.995 0 0 0-3.036-2.33l-4.346-1.164a5 5 0 0 0-2.589 9.659l5.313 1.423a5 5 0 1 1-2.588 9.66l-5.796-1.553a5 5 0 0 1-3.535-6.124" stroke="#B0B0B0" stroke-width="2" stroke-linecap="round" stroke-linejoin="round"/></svg>
